!!!!SEGMENT: pl-sa--481-a-viii-121--010_pleyel-ignace--menuetto.krn
!!!cenid: 18xx:381
!!!COM: Pleyel, Ignace
!!!COM-rismID: pe24761
!!!CDT: 1757/06/18-1831/11/14
!!!CNT: French
!!!OTL: Menuetto
!!!PDT:
!!!AGN: Secular; Minuet
!!!SMS-siglum: PL-SA
!!!SMS-shelfmark: 481/A VIII 121
!!!SMS-shelfwork: 010 W
!!!SMS-variant:
!!!SMS-altvar:
!!!NIFC-rismSourceID: 1001070477
!!!NIFC-islandoraID:
!!!URL-pdf-islandora:
!!!URL-scan: https://bc.bdsandomierz.pl/dlibra/publication/1212/edition/1171/content @EN{Scan in the Sandomierz Diocese Digital Library} @PL{Skany w portalu Cyfrowa Biblioteka Diecezjalna w Sandomierzu}
!!!ONB-nifc: Str. 7, s. 3-5
!!!AIN: 1 piano
!!!key:
**kern	**kern	**dynam
*part1	*part1	*part1
*staff2	*staff1	*
*Ipiano	*Iempty	*
*I"Piano	*	*
*I'P-no	*	*
*clefF4	*clefG2	*
*k[b-e-]	*k[b-e-]	*
*B-:	*B-:	*
*M3/4	*M3/4	*
*>[A,A,B,B]	*>[A,A,B,B]	*
=1	=1	=1
*>A	*>A	*
!LO:TX:a:t=P:problem=błędnie wpisany klucz barytonowy	!	!
!	!LO:TX:a:i:t=Menuetto	!LO:DY:t=pia
8B-\L	4dd 4b-\	p
8B-\	.	.
8B-\	4ee- 4cc\	.
8B-\	.	.
8B-\	4ff 4dd\	.
8B-\J	.	.
=2	=2	=2
*tremolo	*	*
.	8qgg 8qee-/	.
*2\right	*	*
8B-\L	4.ff 4.dd\	.
8B-\	.	.
8B-\	.	.
8B-\	8ee- 8cc\	.
8B-\	4dd 4b-\	.
8B-\J	.	.
=3	=3	=3
.	8qdd 8qb-/	.
8F\L	4cc 4a\	.
8F\	.	.
8F\	4b- 4g\	.
8F\	.	.
8F\	4cc 4a\	.
8F\J	.	.
=4	=4	=4
!LO:N:vis=2.	!	!
2BB-/	4dd 4b-\	.
.	4b- 4d/	.
4r	4ryy	.
=5	=5	=5
*clefG2	*	*
8e- 8G/L	(16gg\LL	.
.	16ff\	.
8e- 8G/	16ee-\	.
.	16dd\JJ)	.
8e- 8G/	(16ee-\LL	.
.	16ff\	.
8e- 8G/	16gg\	.
.	16aa\JJ)	.
8e- 8G/	(16ccc\LL	.
.	16bb-\	.
8e- 8G/J	16aa\	.
.	16gg\JJ)	.
*Xtremolo	*	*
!LO:LB:g=original	!LO:LB:g=original	!
=6	=6	=6
4d 4B-/	(16ff\LL	.
.	16b-\	.
.	16cc\	.
.	16dd\JJ	.
4r	16ee-\LL	.
.	16ff\	.
.	16gg\	.
!	!LO:SIC:v:s=aa	!
.	16gg\JJ)	.
4r	(16bb-\LL	.
.	16aa\	.
.	16gg\	.
.	16ff\JJ)	.
*clefF4	*	*
=7	=7	=7
8F\L	4ff 4dd\	.
8F\	.	.
8A\	4ee- 4cc\	.
8A\	.	.
8B-\	4dd 4b-\	.
8B-\J	.	.
=8	=8	=8
.	8qee- 8qcc/	.
2F\	4dd 4b-\	.
.	4cc 4a\	.
4r	4r	.
=9:|!|:	=9:|!|:	=9:|!|:
*>B	*>B	*
*tremolo	*	*
8A 8F\L	(16f/LL	.
.	16g/	.
8A 8F\	16f/	.
.	16en/JJ)	.
8A 8F\	(8f'/L	.
8A 8F\	8a'/	.
8A 8F\	8cc'/	.
8A 8F\J	8ff'/J)	.
=10	=10	=10
8B- 8F\L	(16g/LL	.
.	16a/	.
8B- 8F\	16g/	.
.	16f#X/JJ)	.
8B- 8F\	8g'\L	.
8B- 8F\	8b-'\	.
8B- 8F\	8ee-X'\	.
8B- 8F\J	8gg'\J	.
=11	=11	=11
8c 8F\L	(16a/LL	.
.	16b-/	.
8c 8F\	16a/	.
.	16g#X/JJ)	.
8c 8F\	(8a'\L	.
8c 8F\	8cc'\	.
8c 8F\	8ee-X'\	.
8c 8F\J	8aa'\J)	.
=12	=12	=12
8d 8F\L	(16b-\LL	.
.	16cc\	.
8d 8F\	16b-\	.
.	16a\JJ)	.
8d 8F\	8b-'\L	.
8d 8F\	8dd'\	.
8d 8F\	8ff'\	.
8d 8F\J	8bb-'\J	.
=13!|:	=13!|:	=13!|:
.	8qbb-/	.
*^	*	*
2c\	8F\L	8aa\L	.
.	8F\	16gg\L	.
.	.	16ff\JJ	.
.	8F\	16een\LL	.
.	.	16ff\	.
.	8F\	16gg\	.
.	.	16aa\JJ	.
4d/	8F\	16bb-\LL	.
.	.	16ff\	.
.	8F\J	(16eee-\	.
.	.	16ff\JJ)	.
*	*Xtremolo	*	*
=14:|!	=14:|!	=14:|!	=14:|!
4d/	2F\	(16ff'\LL	.
.	.	16ff'\	.
.	.	16gg'\	.
.	.	16ff'\JJ	.
4c/	.	16ee-'\LL	.
.	.	16ee-'\	.
.	.	16ff'\	.
.	.	16ee-'\JJ)	.
4B-/	4ryy	16dd\LL	.
.	.	16dd\	.
.	.	16ee-\	.
.	.	16dd\JJ	.
!LO:LB:g=original	!LO:LB:g=original	!	!
=15	=15	=15	=15
4B-/	2F\	16dd\LL	.
.	.	16ee-\	.
.	.	16een\	.
.	.	16ff\JJ	.
4A/	.	4cc\	.
4r	4ryy	4r	.
*v	*v	*	*
=16	=16	=16
!LO:TX:a:t=P:problem=mixed beam	!	!LO:DY:t=pia
8BB-/L	4dd 4b-\	p
8B-\	.	.
8B-\	4ee- 4cc\	.
8B-\	.	.
8B-\	4ff 4dd\	.
8B-\J	.	.
=17	=17	=17
*tremolo	*	*
.	8qgg 8qee-/	.
8B-\L	4.ff 4.dd\	.
8B-\	.	.
8B-\	.	.
8B-\	8ee- 8cc\	.
8B-\	4dd 4b-\	.
8B-\J	.	.
=18	=18	=18
.	8qdd 8qb-/	.
8F\L	4cc 4a\	.
8F\	.	.
8F\	4b- 4g/	.
8F\	.	.
8F\	4cc 4a\	.
8F\J	.	.
=19	=19	=19
2.BB-/	4dd 4b-\	.
.	4b- 4d/	.
.	4ryy	.
=20	=20	=20
8g 8B-\L	(16gg\LL	.
.	16ff\	.
8g 8B-\	16ee-\	.
.	16dd\JJ)	.
8g 8B-\	(16ee-\LL	.
.	16ff\	.
8g 8B-\	16gg\	.
.	16aa\JJ)	.
8g 8B-\	16ccc\LL	.
.	(16bb-\	.
8g 8B-\J	16aa\	.
.	16gg\JJ)	.
*Xtremolo	*	*
=21	=21	=21
4d 4B-\	8ff\L	.
.	16gg\L	.
.	16aa\JJ	.
4r	16bb-\LL	.
.	16ccc\	.
.	16ddd\	.
.	16eee-\JJ	.
4r	16fff\LL	.
.	16ddd\	.
.	16bb-\	.
.	16ff\JJ	.
=22	=22	=22
!LO:TX:a:t=P:problem=mixed beam	!	!
.	8qaa/	.
8E-\L	8gg\L	.
8E-\	16ff\L	.
.	16ee-\JJ	.
8F\	4dd 4b-\	.
8F\	.	.
8FF/	4cc 4a\	.
8FF/J	.	.
=23	=23	=23
2BB-/	4cc 4e-/	.
.	4b- 4d/	.
4r	4r	.
==:|!	==:|!	==:|!
*-	*-	*-
!!!system-decoration: s1,s2
!!!ENC: Marta Lawrence
!!!END: 2020-11-20
!!!ENC: Marcin Jachim
!!!END: 2020-06-14
